X: 33690
T: Randalf's Leap
R: reel
M: 4/4
K: Cmajor
"Am"a3 e gaed|eA A2 GA (3Bcd|eAeg gaed|ed (3e^fg a3 g|
eceg "D"^f2 ed|"Am"eA A2 GA (3Bcd|eAed ecAG|1 "G"ED (3E^FG "Am"A2 eg:|2 "G"ED (3E^FG "Am"A2 ED||
|:"Am"E2 AE A3 B|cd e2 dcAG|"G"DGAG B3 G|DBBD BDAB|"C"c2 dc "G"B2 dB|
"Am"(3cBA AG ABcd|1 eAed ecAG|"G"ED (3E^FG "Am"A2 ED:|2 eAeg "D"^f2 ed|"G"g2 ga "Em7"edeg||

